static/assets/design/headerLinks/doc.svg

<svg fill="none" height="24" viewBox="0 0 19 24" width="19" xmlns="http://www.w3.org/2000/svg"><path d="m3.46497 24h11.88953c2.313 0 3.4768-1.1781 3.4768-3.5124v-10.1544h-8.1066c-1.43452 0-2.1174-.68529-2.1174-2.11982v-8.21338h-5.14233c-2.30578 0-3.46497 1.17808-3.46497 3.51243v16.97517c0 2.3462 1.15435 3.5124 3.46497 3.5124zm7.28153-15.19798h7.9465c-.0641-.47296-.3947-.91734-.9221-1.45668l-6.1757-6.28248c-.5181-.529873-.9886-.867449-1.4567-.945916v8.074676c0 .41015.2121.6104.608.6104z" fill="#505050"/></svg>

<svg width="19" height="24" viewBox="0 0 19 24" fill="none" xmlns="http://www.w3.org/2000/svg">
<path d="M3.46497 24H15.3545C17.6675 24 18.8313 22.8219 18.8313 20.4876V10.3332H10.7247C9.29018 10.3332 8.6073 9.64791 8.6073 8.21338V0H3.46497C1.15919 0 0 1.17808 0 3.51243V20.4876C0 22.8338 1.15435 24 3.46497 24ZM10.7465 8.80202H18.693C18.6289 8.32906 18.2983 7.88468 17.7709 7.34534L11.5952 1.06286C11.0771 0.532987 10.6066 0.195411 10.1385 0.116944V8.19162C10.1385 8.60177 10.3506 8.80202 10.7465 8.80202Z" fill="#505050"/>
</svg>
